X: 6199
T: Carew Cross
R: jig
M: 6/8
K: Fmajor
|:DED DCA,|FEF G2G|ABA GFE|FGF EDC|
DED DCA,|FEF G2G|Adc BAG|AGF E3:|
|:EA,A, FA,A,|DCD ECA,|EA,A, FA,A,|AcB AGF|
EA,A, FA,A,|GFG d2d|AcB AGF|1 AGF E2D:|2 AGF EFG||
|:AGF AGE|AFD DEF|Add ded|cAG Adc|
AGF AGE|AFD DEF|AcB AGF|1 AGF EFG:|2 AGF E2D||
|:EA,A, FA,A,|DA,A, GA,A,|AA,A, DA,A,|EGF EDC|
EA,A, FA,A,|DA,A, GA,A,|AA,A, DA,A,|EDC D2D:|

